X:1
T:Old MacDonald Had a Farm
C:Traditional
M:4/4
L:1/4
Q:1/4=120
K:G
G G G D | E E D2 | B B A A | G4 | G G G D | E E D D | B B A A | G4 | D/D/ G G G | D/D/ G G G | G/G/ G G/G/ G | G/G/ G/G/ G G | G G G D | E E D2 | B B A A | G4 |]
w: Old Mac-Don-ald | had a farm | E I E I | O | And on his farm | he had a cow | E I E I | O | With-a moo moo here | and-a moo moo there | here a moo there a moo | ev-ery-where a moo-moo | Old Mac-Don-ald | had a farm | E I E I | O
